X:1
T:Title
%%score { ( 1 2 ) | ( 3 4 ) }
L:1/8
M:3/4
K:Eb
V:1 treble nm="Grand Piano"
V:2 treble 
V:3 bass 
V:4 bass 
V:1
 z2 z2[Q:1/4=100] z F | G>_G =G>[FA] [GB]>[Ac] | [GB]2 G2 E2 | [DF]3- [DF]/[FA]/ [EG]>[DF] | %4
[M:2/4] E4 |[M:1/4] z F |[M:3/4] G>_G =G>[FA] [GB]>[Ac] | [EGB]2 [EG]2 Be | d3- d/e/ d>c | %9
[M:2/4] [DB]4 |[M:1/4] (3Bcd |[M:3/4] [Ge]>[Ge] [Bd]>[Bd] [Ac]>[Ac] | [GB]2 G2 (3E-[EF]G | %13
 [FA]>[EG] [FA]>[EG] [FA]>[GB] |[M:2/4] G4 |[M:1/4] (3Bcd |[M:3/4] [Ge]>[Ge] [Bd]>[Bd] [Ac]>[Ac] | %17
 [GB]2 [EG]2 z F | G>A G>A [EG]>[DF] |[M:2/4] E4 |] %20
V:2
 z2 z2 E2 | x6 | x6 | x6 |[M:2/4] x4 |[M:1/4] E2 |[M:3/4] x6 | z2 z2 [B,G]2 | x6 |[M:2/4] x4 | %10
[M:1/4] x2 |[M:3/4] x6 | x6 | x6 |[M:2/4] x4 |[M:1/4] x2 |[M:3/4] x6 | z2 z2 E2 | x6 |[M:2/4] x4 |] %20
V:3
 z2 z2 G,A, | [E,B,E]>[E,=A,E] [E,B,E]>[E,E] [E,E]>[E,E] | E2 [B,E]2 [E,G,]2 | %3
 [B,,B,]3- [B,,B,]/[B,,B,]/ [B,,B,]>[B,,A,] |[M:2/4] [E,G,]4 |[M:1/4] G,A, | %6
[M:3/4] [E,B,E]>[E,A,E] [E,B,E]>[E,E] [E,E]>[E,E] | z2 B,2 E,2 | %8
 [F,B,F]3- [F,B,F]/[F,CF]/ [F,B,F]>[F,A,E] |[M:2/4] [B,,B,]4 | %10
[M:1/4][K:treble] (3:2:2[B,A]2 [B,A] |[M:3/4][K:bass] [E,B,]>[E,B,] [E,E]>[E,E] [E,E]>[E,E] | %12
 [E,E]2 [E,B,E]2 (3[E,-G,][E,A,][E,B,E] | [B,,B,]>[B,,B,] [B,,B,]>[B,,B,] [B,,B,]>[B,,B,] | %14
[M:2/4] [E,B,E]4 |[M:1/4][K:treble] (3[B,A][B,A][B,A] | %16
[M:3/4][K:bass] [E,B,]>[E,B,] [E,E]>[E,E] [E,E]>[E,E] | [E,E]2 [E,B,]2 [G,B,][K:treble][A,C] | %18
 [B,E]>[B,F] [B,E]>[B,F][K:bass] [B,,B,]>[B,,A,] |[M:2/4] [E,G,]4 |] %20
V:4
 z2 z2 E,2 | x6 | E,4 z2 | x6 |[M:2/4] x4 |[M:1/4] E,2 |[M:3/4] x6 | E,4 z2 | x6 |[M:2/4] x4 | %10
[M:1/4][K:treble] x2 |[M:3/4][K:bass] x6 | x6 | x6 |[M:2/4] x4 |[M:1/4][K:treble] x2 | %16
[M:3/4][K:bass] x6 | x5[K:treble] x | x4[K:bass] x2 |[M:2/4] x4 |] %20

